images/50110083.svg

<?xml version="1.0" encoding="UTF-8"?>
<svg xmlns="http://www.w3.org/2000/svg" xmlns:xlink="http://www.w3.org/1999/xlink" width="300pt" height="300pt" viewBox="0 0 300 300" version="1.1">
<defs>
<g>
<symbol overflow="visible" id="glyph0-0">
<path style="stroke:none;" d="M 0.453125 1.59375 L 0.453125 -6.34375 L 4.953125 -6.34375 L 4.953125 1.59375 Z M 0.953125 1.09375 L 4.453125 1.09375 L 4.453125 -5.84375 L 0.953125 -5.84375 Z M 0.953125 1.09375 "/>
</symbol>
<symbol overflow="visible" id="glyph0-1">
<path style="stroke:none;" d="M 0.890625 -6.5625 L 4.65625 -6.5625 L 4.65625 -5.8125 L 1.765625 -5.8125 L 1.765625 -3.875 L 4.375 -3.875 L 4.375 -3.140625 L 1.765625 -3.140625 L 1.765625 0 L 0.890625 0 Z M 0.890625 -6.5625 "/>
</symbol>
<symbol overflow="visible" id="glyph0-2">
<path style="stroke:none;" d="M 0.890625 -6.5625 L 2.078125 -6.5625 L 4.984375 -1.078125 L 4.984375 -6.5625 L 5.84375 -6.5625 L 5.84375 0 L 4.65625 0 L 1.75 -5.484375 L 1.75 0 L 0.890625 0 Z M 0.890625 -6.5625 "/>
</symbol>
<symbol overflow="visible" id="glyph0-3">
<path style="stroke:none;" d="M 0.890625 -6.5625 L 1.765625 -6.5625 L 1.765625 -3.875 L 5 -3.875 L 5 -6.5625 L 5.890625 -6.5625 L 5.890625 0 L 5 0 L 5 -3.125 L 1.765625 -3.125 L 1.765625 0 L 0.890625 0 Z M 0.890625 -6.5625 "/>
</symbol>
<symbol overflow="visible" id="glyph0-4">
<path style="stroke:none;" d="M 3.546875 -5.953125 C 2.898438 -5.953125 2.382812 -5.710938 2 -5.234375 C 1.625 -4.753906 1.4375 -4.101562 1.4375 -3.28125 C 1.4375 -2.445312 1.625 -1.789062 2 -1.3125 C 2.382812 -0.832031 2.898438 -0.59375 3.546875 -0.59375 C 4.191406 -0.59375 4.703125 -0.832031 5.078125 -1.3125 C 5.453125 -1.789062 5.640625 -2.445312 5.640625 -3.28125 C 5.640625 -4.101562 5.453125 -4.753906 5.078125 -5.234375 C 4.703125 -5.710938 4.191406 -5.953125 3.546875 -5.953125 Z M 3.546875 -6.6875 C 4.460938 -6.6875 5.195312 -6.375 5.75 -5.75 C 6.300781 -5.132812 6.578125 -4.3125 6.578125 -3.28125 C 6.578125 -2.238281 6.300781 -1.410156 5.75 -0.796875 C 5.195312 -0.179688 4.460938 0.125 3.546875 0.125 C 2.617188 0.125 1.878906 -0.179688 1.328125 -0.796875 C 0.773438 -1.410156 0.5 -2.238281 0.5 -3.28125 C 0.5 -4.3125 0.773438 -5.132812 1.328125 -5.75 C 1.878906 -6.375 2.617188 -6.6875 3.546875 -6.6875 Z M 3.546875 -6.6875 "/>
</symbol>
</g>
</defs>
<g id="surface10925">
<rect x="0" y="0" width="300" height="300" style="fill:rgb(100%,100%,100%);fill-opacity:1;stroke:none;"/>
<path style="fill:none;stroke-width:1.2;stroke-linecap:butt;stroke-linejoin:miter;stroke:rgb(20%,80%,80%);stroke-opacity:1;stroke-miterlimit:10;" d="M 35.25 149.808594 L 44.578125 152.683594 "/>
<path style="fill:none;stroke-width:1.2;stroke-linecap:butt;stroke-linejoin:miter;stroke:rgb(0%,0%,0%);stroke-opacity:1;stroke-miterlimit:10;" d="M 44.578125 152.683594 L 53.90625 155.558594 "/>
<path style=" stroke:none;fill-rule:nonzero;fill:rgb(100%,100%,100%);fill-opacity:1;" d="M 29.25 144.308594 L 35.25 144.308594 L 35.25 155.308594 L 29.25 155.308594 Z M 29.25 144.308594 "/>
<g style="fill:rgb(20%,80%,80%);fill-opacity:1;">
  <use xlink:href="#glyph0-1" x="29.25" y="152.97168"/>
</g>
<path style="fill:none;stroke-width:1.2;stroke-linecap:butt;stroke-linejoin:miter;stroke:rgb(0%,0%,0%);stroke-opacity:1;stroke-miterlimit:10;" d="M 53.90625 155.558594 L 68.214844 142.273438 "/>
<path style="fill:none;stroke-width:1.2;stroke-linecap:butt;stroke-linejoin:miter;stroke:rgb(0%,0%,0%);stroke-opacity:1;stroke-miterlimit:10;" d="M 58.464844 157.59375 L 69.910156 146.96875 "/>
<path style="fill:none;stroke-width:1.2;stroke-linecap:butt;stroke-linejoin:miter;stroke:rgb(0%,0%,0%);stroke-opacity:1;stroke-miterlimit:10;" d="M 58.257812 174.589844 L 53.90625 155.558594 "/>
<path style="fill:none;stroke-width:1.2;stroke-linecap:butt;stroke-linejoin:miter;stroke:rgb(0%,0%,0%);stroke-opacity:1;stroke-miterlimit:10;" d="M 68.214844 142.273438 L 86.871094 148.019531 "/>
<path style="fill:none;stroke-width:1.2;stroke-linecap:butt;stroke-linejoin:miter;stroke:rgb(0%,0%,0%);stroke-opacity:1;stroke-miterlimit:10;" d="M 86.871094 148.019531 L 91.222656 167.050781 "/>
<path style="fill:none;stroke-width:1.2;stroke-linecap:butt;stroke-linejoin:miter;stroke:rgb(0%,0%,0%);stroke-opacity:1;stroke-miterlimit:10;" d="M 82.828125 150.949219 L 86.3125 166.171875 "/>
<path style=" stroke:none;fill-rule:nonzero;fill:rgb(0%,0%,0%);fill-opacity:1;" d="M 101.179688 134.734375 L 84.527344 145.496094 L 89.21875 150.546875 Z M 101.179688 134.734375 "/>
<path style="fill:none;stroke-width:1.2;stroke-linecap:butt;stroke-linejoin:miter;stroke:rgb(0%,0%,0%);stroke-opacity:1;stroke-miterlimit:10;" d="M 91.222656 167.050781 L 76.917969 180.335938 "/>
<path style="fill:none;stroke-width:1.2;stroke-linecap:butt;stroke-linejoin:miter;stroke:rgb(0%,0%,0%);stroke-opacity:1;stroke-miterlimit:10;" d="M 76.917969 180.335938 L 58.257812 174.589844 "/>
<path style="fill:none;stroke-width:1.2;stroke-linecap:butt;stroke-linejoin:miter;stroke:rgb(0%,0%,0%);stroke-opacity:1;stroke-miterlimit:10;" d="M 76.402344 175.371094 L 61.476562 170.773438 "/>
<path style="fill:none;stroke-width:1.2;stroke-linecap:butt;stroke-linejoin:miter;stroke:rgb(0%,0%,0%);stroke-opacity:1;stroke-miterlimit:10;" d="M 58.257812 174.589844 L 51.105469 181.230469 "/>
<path style="fill:none;stroke-width:1.2;stroke-linecap:butt;stroke-linejoin:miter;stroke:rgb(20%,80%,80%);stroke-opacity:1;stroke-miterlimit:10;" d="M 51.105469 181.230469 L 43.953125 187.875 "/>
<path style=" stroke:none;fill-rule:nonzero;fill:rgb(100%,100%,100%);fill-opacity:1;" d="M 37.953125 182.375 L 43.953125 182.375 L 43.953125 193.375 L 37.953125 193.375 Z M 37.953125 182.375 "/>
<g style="fill:rgb(20%,80%,80%);fill-opacity:1;">
  <use xlink:href="#glyph0-1" x="37.953125" y="191.038086"/>
</g>
<path style="fill:none;stroke-width:1.2;stroke-linecap:butt;stroke-linejoin:miter;stroke:rgb(0%,0%,0%);stroke-opacity:1;stroke-miterlimit:10;" d="M 101.179688 134.734375 L 110.507812 137.609375 "/>
<path style="fill:none;stroke-width:1.2;stroke-linecap:butt;stroke-linejoin:miter;stroke:rgb(0%,0%,100%);stroke-opacity:1;stroke-miterlimit:10;" d="M 110.507812 137.609375 L 119.835938 140.484375 "/>
<path style="fill:none;stroke-width:1.2;stroke-linecap:butt;stroke-linejoin:miter;stroke:rgb(0%,0%,0%);stroke-opacity:1;stroke-miterlimit:10;" d="M 101.179688 134.734375 L 96.828125 115.703125 "/>
<path style="fill:none;stroke-width:1.2;stroke-linecap:butt;stroke-linejoin:miter;stroke:rgb(0%,0%,100%);stroke-opacity:1;stroke-miterlimit:10;" d="M 119.835938 140.484375 L 122.011719 150 "/>
<path style="fill:none;stroke-width:1.2;stroke-linecap:butt;stroke-linejoin:miter;stroke:rgb(0%,0%,0%);stroke-opacity:1;stroke-miterlimit:10;" d="M 122.011719 150 L 124.1875 159.515625 "/>
<path style=" stroke:none;fill-rule:nonzero;fill:rgb(100%,100%,100%);fill-opacity:1;" d="M 112.835938 134.984375 L 126.835938 134.984375 L 126.835938 145.984375 L 112.835938 145.984375 Z M 112.835938 134.984375 "/>
<g style="fill:rgb(0%,0%,100%);fill-opacity:1;">
  <use xlink:href="#glyph0-2" x="112.835938" y="143.647461"/>
  <use xlink:href="#glyph0-3" x="119.813477" y="143.647461"/>
</g>
<path style="fill:none;stroke-width:1.2;stroke-linecap:butt;stroke-linejoin:miter;stroke:rgb(0%,0%,0%);stroke-opacity:1;stroke-miterlimit:10;" d="M 122.625 157.832031 L 115.472656 164.476562 "/>
<path style="fill:none;stroke-width:1.2;stroke-linecap:butt;stroke-linejoin:miter;stroke:rgb(100%,0%,0%);stroke-opacity:1;stroke-miterlimit:10;" d="M 115.472656 164.476562 L 108.320312 171.117188 "/>
<path style="fill:none;stroke-width:1.2;stroke-linecap:butt;stroke-linejoin:miter;stroke:rgb(0%,0%,0%);stroke-opacity:1;stroke-miterlimit:10;" d="M 125.75 161.199219 L 118.597656 167.839844 "/>
<path style="fill:none;stroke-width:1.2;stroke-linecap:butt;stroke-linejoin:miter;stroke:rgb(100%,0%,0%);stroke-opacity:1;stroke-miterlimit:10;" d="M 118.597656 167.839844 L 111.445312 174.484375 "/>
<path style="fill:none;stroke-width:1.2;stroke-linecap:butt;stroke-linejoin:miter;stroke:rgb(0%,0%,0%);stroke-opacity:1;stroke-miterlimit:10;" d="M 124.1875 159.515625 L 133.519531 162.390625 "/>
<path style="fill:none;stroke-width:1.2;stroke-linecap:butt;stroke-linejoin:miter;stroke:rgb(0%,0%,100%);stroke-opacity:1;stroke-miterlimit:10;" d="M 133.519531 162.390625 L 142.847656 165.265625 "/>
<path style=" stroke:none;fill-rule:nonzero;fill:rgb(100%,100%,100%);fill-opacity:1;" d="M 101.882812 167.300781 L 109.882812 167.300781 L 109.882812 178.300781 L 101.882812 178.300781 Z M 101.882812 167.300781 "/>
<g style="fill:rgb(100%,0%,0%);fill-opacity:1;">
  <use xlink:href="#glyph0-4" x="101.882812" y="175.963867"/>
</g>
<path style="fill:none;stroke-width:1.2;stroke-linecap:butt;stroke-linejoin:miter;stroke:rgb(0%,0%,100%);stroke-opacity:1;stroke-miterlimit:10;" d="M 142.847656 165.265625 L 145.023438 174.78125 "/>
<path style="fill:none;stroke-width:1.2;stroke-linecap:butt;stroke-linejoin:miter;stroke:rgb(0%,0%,0%);stroke-opacity:1;stroke-miterlimit:10;" d="M 145.023438 174.78125 L 147.199219 184.296875 "/>
<path style="fill:none;stroke-width:1.2;stroke-linecap:butt;stroke-linejoin:miter;stroke:rgb(0%,0%,0%);stroke-opacity:1;stroke-miterlimit:10;" d="M 157.152344 151.980469 L 150 158.621094 "/>
<path style="fill:none;stroke-width:1.2;stroke-linecap:butt;stroke-linejoin:miter;stroke:rgb(0%,0%,100%);stroke-opacity:1;stroke-miterlimit:10;" d="M 150 158.621094 L 142.847656 165.265625 "/>
<path style=" stroke:none;fill-rule:nonzero;fill:rgb(100%,100%,100%);fill-opacity:1;" d="M 139.847656 159.765625 L 146.847656 159.765625 L 146.847656 170.765625 L 139.847656 170.765625 Z M 139.847656 159.765625 "/>
<g style="fill:rgb(0%,0%,100%);fill-opacity:1;">
  <use xlink:href="#glyph0-2" x="139.847656" y="168.428711"/>
</g>
<path style="fill:none;stroke-width:1.2;stroke-linecap:butt;stroke-linejoin:miter;stroke:rgb(0%,0%,0%);stroke-opacity:1;stroke-miterlimit:10;" d="M 147.199219 184.296875 L 165.855469 190.042969 "/>
<path style="fill:none;stroke-width:1.2;stroke-linecap:butt;stroke-linejoin:miter;stroke:rgb(0%,0%,0%);stroke-opacity:1;stroke-miterlimit:10;" d="M 165.855469 190.042969 L 180.164062 176.757812 "/>
<path style="fill:none;stroke-width:1.2;stroke-linecap:butt;stroke-linejoin:miter;stroke:rgb(0%,0%,0%);stroke-opacity:1;stroke-miterlimit:10;" d="M 180.164062 176.757812 L 175.8125 157.726562 "/>
<path style="fill:none;stroke-width:1.2;stroke-linecap:butt;stroke-linejoin:miter;stroke:rgb(0%,0%,0%);stroke-opacity:1;stroke-miterlimit:10;" d="M 184.207031 173.832031 L 180.726562 158.605469 "/>
<path style="fill:none;stroke-width:1.2;stroke-linecap:butt;stroke-linejoin:miter;stroke:rgb(0%,0%,0%);stroke-opacity:1;stroke-miterlimit:10;" d="M 198.820312 182.507812 L 180.164062 176.757812 "/>
<path style="fill:none;stroke-width:1.2;stroke-linecap:butt;stroke-linejoin:miter;stroke:rgb(0%,0%,0%);stroke-opacity:1;stroke-miterlimit:10;" d="M 175.8125 157.726562 L 182.964844 151.085938 "/>
<path style="fill:none;stroke-width:1.2;stroke-linecap:butt;stroke-linejoin:miter;stroke:rgb(0%,0%,100%);stroke-opacity:1;stroke-miterlimit:10;" d="M 182.964844 151.085938 L 190.117188 144.441406 "/>
<path style="fill:none;stroke-width:1.2;stroke-linecap:butt;stroke-linejoin:miter;stroke:rgb(0%,0%,0%);stroke-opacity:1;stroke-miterlimit:10;" d="M 175.8125 157.726562 L 157.152344 151.980469 "/>
<path style="fill:none;stroke-width:1.2;stroke-linecap:butt;stroke-linejoin:miter;stroke:rgb(0%,0%,100%);stroke-opacity:1;stroke-miterlimit:10;" d="M 190.117188 144.441406 L 199.445312 147.316406 "/>
<path style="fill:none;stroke-width:1.2;stroke-linecap:butt;stroke-linejoin:miter;stroke:rgb(0%,0%,0%);stroke-opacity:1;stroke-miterlimit:10;" d="M 199.445312 147.316406 L 208.777344 150.191406 "/>
<path style="fill:none;stroke-width:1.2;stroke-linecap:butt;stroke-linejoin:miter;stroke:rgb(0%,0%,100%);stroke-opacity:1;stroke-miterlimit:10;" d="M 190.632812 149.40625 L 198.09375 151.707031 "/>
<path style="fill:none;stroke-width:1.2;stroke-linecap:butt;stroke-linejoin:miter;stroke:rgb(0%,0%,0%);stroke-opacity:1;stroke-miterlimit:10;" d="M 198.09375 151.707031 L 205.558594 154.007812 "/>
<path style=" stroke:none;fill-rule:nonzero;fill:rgb(100%,100%,100%);fill-opacity:1;" d="M 187.117188 138.941406 L 194.117188 138.941406 L 194.117188 149.941406 L 187.117188 149.941406 Z M 187.117188 138.941406 "/>
<g style="fill:rgb(0%,0%,100%);fill-opacity:1;">
  <use xlink:href="#glyph0-2" x="187.117188" y="147.604492"/>
</g>
<path style="fill:none;stroke-width:1.2;stroke-linecap:butt;stroke-linejoin:miter;stroke:rgb(0%,0%,0%);stroke-opacity:1;stroke-miterlimit:10;" d="M 208.777344 150.191406 L 210.953125 159.707031 "/>
<path style="fill:none;stroke-width:1.2;stroke-linecap:butt;stroke-linejoin:miter;stroke:rgb(0%,0%,100%);stroke-opacity:1;stroke-miterlimit:10;" d="M 210.953125 159.707031 L 213.128906 169.222656 "/>
<path style="fill:none;stroke-width:1.2;stroke-linecap:butt;stroke-linejoin:miter;stroke:rgb(0%,0%,0%);stroke-opacity:1;stroke-miterlimit:10;" d="M 208.777344 150.191406 L 215.929688 143.546875 "/>
<path style="fill:none;stroke-width:1.2;stroke-linecap:butt;stroke-linejoin:miter;stroke:rgb(0%,0%,100%);stroke-opacity:1;stroke-miterlimit:10;" d="M 215.929688 143.546875 L 223.082031 136.90625 "/>
<path style="fill:none;stroke-width:1.2;stroke-linecap:butt;stroke-linejoin:miter;stroke:rgb(0%,0%,100%);stroke-opacity:1;stroke-miterlimit:10;" d="M 213.128906 169.222656 L 205.972656 175.867188 "/>
<path style="fill:none;stroke-width:1.2;stroke-linecap:butt;stroke-linejoin:miter;stroke:rgb(0%,0%,0%);stroke-opacity:1;stroke-miterlimit:10;" d="M 205.972656 175.867188 L 198.820312 182.507812 "/>
<path style="fill:none;stroke-width:1.2;stroke-linecap:butt;stroke-linejoin:miter;stroke:rgb(0%,0%,100%);stroke-opacity:1;stroke-miterlimit:10;" d="M 208.570312 167.183594 L 202.847656 172.5 "/>
<path style="fill:none;stroke-width:1.2;stroke-linecap:butt;stroke-linejoin:miter;stroke:rgb(0%,0%,0%);stroke-opacity:1;stroke-miterlimit:10;" d="M 202.847656 172.5 L 197.125 177.8125 "/>
<path style=" stroke:none;fill-rule:nonzero;fill:rgb(100%,100%,100%);fill-opacity:1;" d="M 210.128906 163.722656 L 217.128906 163.722656 L 217.128906 174.722656 L 210.128906 174.722656 Z M 210.128906 163.722656 "/>
<g style="fill:rgb(0%,0%,100%);fill-opacity:1;">
  <use xlink:href="#glyph0-2" x="210.128906" y="172.385742"/>
</g>
<path style=" stroke:none;fill-rule:nonzero;fill:rgb(0%,0%,0%);fill-opacity:1;" d="M 241.742188 142.65625 L 224.097656 133.613281 L 222.070312 140.199219 Z M 241.742188 142.65625 "/>
<path style=" stroke:none;fill-rule:nonzero;fill:rgb(100%,100%,100%);fill-opacity:1;" d="M 216.082031 131.40625 L 230.082031 131.40625 L 230.082031 142.40625 L 216.082031 142.40625 Z M 216.082031 131.40625 "/>
<g style="fill:rgb(0%,0%,100%);fill-opacity:1;">
  <use xlink:href="#glyph0-2" x="216.082031" y="140.069336"/>
  <use xlink:href="#glyph0-3" x="223.05957" y="140.069336"/>
</g>
<path style="fill:none;stroke-width:1.2;stroke-linecap:butt;stroke-linejoin:miter;stroke:rgb(0%,0%,0%);stroke-opacity:1;stroke-miterlimit:10;" d="M 241.742188 142.65625 L 246.09375 161.6875 "/>
<path style="fill:none;stroke-width:1.2;stroke-linecap:butt;stroke-linejoin:miter;stroke:rgb(0%,0%,0%);stroke-opacity:1;stroke-miterlimit:10;" d="M 241.742188 142.65625 L 256.046875 129.371094 "/>
<path style="fill:none;stroke-width:1.2;stroke-linecap:butt;stroke-linejoin:miter;stroke:rgb(0%,0%,0%);stroke-opacity:1;stroke-miterlimit:10;" d="M 246.09375 161.6875 L 255.421875 164.558594 "/>
<path style="fill:none;stroke-width:1.2;stroke-linecap:butt;stroke-linejoin:miter;stroke:rgb(100%,0%,0%);stroke-opacity:1;stroke-miterlimit:10;" d="M 255.421875 164.558594 L 264.75 167.433594 "/>
<path style=" stroke:none;fill-rule:nonzero;fill:rgb(100%,100%,100%);fill-opacity:1;" d="M 257.75 161.933594 L 272.75 161.933594 L 272.75 172.933594 L 257.75 172.933594 Z M 257.75 161.933594 "/>
<g style="fill:rgb(100%,0%,0%);fill-opacity:1;">
  <use xlink:href="#glyph0-4" x="257.75" y="170.59668"/>
  <use xlink:href="#glyph0-3" x="265.091797" y="170.59668"/>
</g>
<path style="fill:none;stroke-width:1.2;stroke-linecap:butt;stroke-linejoin:miter;stroke:rgb(0%,0%,0%);stroke-opacity:1;stroke-miterlimit:10;" d="M 96.828125 115.703125 L 78.171875 109.957031 "/>
</g>
</svg>

<svg xmlns="http://www.w3.org/2000/svg" xmlns:xlink="http://www.w3.org/1999/xlink" width="300pt" height="300pt" viewBox="0 0 300 300"><defs><symbol overflow="visible"><path d="M.453 1.594v-7.938h4.5v7.938zm.5-.5h3.5v-6.938h-3.5zm0 0"/></symbol><symbol overflow="visible" id="a"><path d="M.89-6.563h3.766v.75h-2.89v1.938h2.61v.734h-2.61V0H.89zm0 0"/></symbol><symbol overflow="visible" id="b"><path d="M.89-6.563H2.08l2.906 5.485v-5.484h.86V0H4.656L1.75-5.484V0H.89zm0 0"/></symbol><symbol overflow="visible" id="c"><path d="M.89-6.563h.876v2.688H5v-2.688h.89V0H5v-3.125H1.766V0H.89zm0 0"/></symbol><symbol overflow="visible" id="d"><path d="M3.547-5.953c-.65 0-1.164.242-1.547.72-.375.48-.563 1.13-.563 1.952 0 .835.188 1.49.563 1.967.383.48.898.72 1.547.72.644 0 1.156-.24 1.53-.72.376-.476.564-1.132.564-1.968 0-.822-.187-1.474-.562-1.954-.375-.477-.887-.72-1.53-.72zm0-.734c.914 0 1.648.312 2.203.937.55.617.828 1.438.828 2.47 0 1.042-.277 1.87-.828 2.483-.555.617-1.29.922-2.203.922-.93 0-1.668-.305-2.22-.922C.774-1.41.5-2.237.5-3.28c0-1.033.273-1.853.828-2.47.55-.625 1.29-.938 2.22-.938zm0 0"/></symbol></defs><g><path fill="#fff" d="M0 0h300v300H0z"/><path d="M35.25 149.81l9.328 2.874" stroke-width="1.2" stroke="#3cc" stroke-miterlimit="10" fill="none"/><path d="M44.578 152.684l9.328 2.875" stroke-width="1.2" stroke="#000" stroke-miterlimit="10" fill="none"/><path d="M29.25 144.31h6v11h-6zm0 0" fill="#fff"/><use xlink:href="#a" x="29.25" y="152.972" fill="#3cc"/><path d="M53.906 155.56l14.31-13.287M58.465 157.594L69.91 146.97M58.258 174.59l-4.352-19.03M68.215 142.273l18.656 5.747M86.87 148.02l4.353 19.03M82.828 150.95l3.484 15.222" stroke-width="1.2" stroke="#000" stroke-miterlimit="10" fill="none"/><path d="M101.18 134.734l-16.653 10.762 4.692 5.05zm0 0"/><path d="M91.223 167.05l-14.305 13.286M76.918 180.336l-18.66-5.746M76.402 175.37l-14.925-4.597M58.258 174.59l-7.153 6.64" stroke-width="1.2" stroke="#000" stroke-miterlimit="10" fill="none"/><path d="M51.105 181.23l-7.152 6.645" stroke-width="1.2" stroke="#3cc" stroke-miterlimit="10" fill="none"/><path d="M37.953 182.375h6v11h-6zm0 0" fill="#fff"/><use xlink:href="#a" x="37.953" y="191.038" fill="#3cc"/><path d="M101.18 134.734l9.328 2.875" stroke-width="1.2" stroke="#000" stroke-miterlimit="10" fill="none"/><path d="M110.508 137.61l9.328 2.874" stroke-width="1.2" stroke="#00f" stroke-miterlimit="10" fill="none"/><path d="M101.18 134.734l-4.352-19.03" stroke-width="1.2" stroke="#000" stroke-miterlimit="10" fill="none"/><path d="M119.836 140.484l2.176 9.516" stroke-width="1.2" stroke="#00f" stroke-miterlimit="10" fill="none"/><path d="M122.012 150l2.175 9.516" stroke-width="1.2" stroke="#000" stroke-miterlimit="10" fill="none"/><path d="M112.836 134.984h14v11h-14zm0 0" fill="#fff"/><g fill="#00f"><use xlink:href="#b" x="112.836" y="143.647"/><use xlink:href="#c" x="119.813" y="143.647"/></g><path d="M122.625 157.832l-7.152 6.645" stroke-width="1.2" stroke="#000" stroke-miterlimit="10" fill="none"/><path d="M115.473 164.477l-7.153 6.64" stroke-width="1.2" stroke="#f00" stroke-miterlimit="10" fill="none"/><path d="M125.75 161.2l-7.152 6.64" stroke-width="1.2" stroke="#000" stroke-miterlimit="10" fill="none"/><path d="M118.598 167.84l-7.153 6.644" stroke-width="1.2" stroke="#f00" stroke-miterlimit="10" fill="none"/><path d="M124.188 159.516l9.332 2.875" stroke-width="1.2" stroke="#000" stroke-miterlimit="10" fill="none"/><path d="M133.52 162.39l9.328 2.876" stroke-width="1.2" stroke="#00f" stroke-miterlimit="10" fill="none"/><path d="M101.883 167.3h8v11h-8zm0 0" fill="#fff"/><use xlink:href="#d" x="101.883" y="175.964" fill="#f00"/><path d="M142.848 165.266l2.175 9.515" stroke-width="1.2" stroke="#00f" stroke-miterlimit="10" fill="none"/><path d="M145.023 174.78l2.176 9.517M157.152 151.98L150 158.62" stroke-width="1.2" stroke="#000" stroke-miterlimit="10" fill="none"/><path d="M150 158.62l-7.152 6.646" stroke-width="1.2" stroke="#00f" stroke-miterlimit="10" fill="none"/><path d="M139.848 159.766h7v11h-7zm0 0" fill="#fff"/><use xlink:href="#b" x="139.848" y="168.429" fill="#00f"/><path d="M147.2 184.297l18.655 5.746M165.855 190.043l14.31-13.285M180.164 176.758l-4.35-19.03M184.207 173.832l-3.48-15.227M198.82 182.508l-18.656-5.75M175.813 157.727l7.152-6.64" stroke-width="1.2" stroke="#000" stroke-miterlimit="10" fill="none"/><path d="M182.965 151.086l7.152-6.645" stroke-width="1.2" stroke="#00f" stroke-miterlimit="10" fill="none"/><path d="M175.813 157.727l-18.66-5.747" stroke-width="1.2" stroke="#000" stroke-miterlimit="10" fill="none"/><path d="M190.117 144.44l9.328 2.876" stroke-width="1.2" stroke="#00f" stroke-miterlimit="10" fill="none"/><path d="M199.445 147.316l9.332 2.875" stroke-width="1.2" stroke="#000" stroke-miterlimit="10" fill="none"/><path d="M190.633 149.406l7.46 2.3" stroke-width="1.2" stroke="#00f" stroke-miterlimit="10" fill="none"/><path d="M198.094 151.707l7.465 2.3" stroke-width="1.2" stroke="#000" stroke-miterlimit="10" fill="none"/><path d="M187.117 138.94h7v11h-7zm0 0" fill="#fff"/><use xlink:href="#b" x="187.117" y="147.604" fill="#00f"/><path d="M208.777 150.19l2.176 9.517" stroke-width="1.2" stroke="#000" stroke-miterlimit="10" fill="none"/><path d="M210.953 159.707l2.176 9.516" stroke-width="1.2" stroke="#00f" stroke-miterlimit="10" fill="none"/><path d="M208.777 150.19l7.153-6.643" stroke-width="1.2" stroke="#000" stroke-miterlimit="10" fill="none"/><path d="M215.93 143.547l7.152-6.64M213.13 169.223l-7.157 6.644" stroke-width="1.2" stroke="#00f" stroke-miterlimit="10" fill="none"/><path d="M205.973 175.867l-7.153 6.64" stroke-width="1.2" stroke="#000" stroke-miterlimit="10" fill="none"/><path d="M208.57 167.184l-5.722 5.316" stroke-width="1.2" stroke="#00f" stroke-miterlimit="10" fill="none"/><path d="M202.848 172.5l-5.723 5.313" stroke-width="1.2" stroke="#000" stroke-miterlimit="10" fill="none"/><path d="M210.13 163.723h7v11h-7zm0 0" fill="#fff"/><use xlink:href="#b" x="210.129" y="172.386" fill="#00f"/><path d="M241.742 142.656l-17.644-9.043-2.028 6.586zm0 0"/><path d="M216.082 131.406h14v11h-14zm0 0" fill="#fff"/><g fill="#00f"><use xlink:href="#b" x="216.082" y="140.069"/><use xlink:href="#c" x="223.06" y="140.069"/></g><path d="M241.742 142.656l4.352 19.03M241.742 142.656l14.305-13.285M246.094 161.688l9.328 2.87" stroke-width="1.2" stroke="#000" stroke-miterlimit="10" fill="none"/><path d="M255.422 164.56l9.328 2.874" stroke-width="1.2" stroke="#f00" stroke-miterlimit="10" fill="none"/><path d="M257.75 161.934h15v11h-15zm0 0" fill="#fff"/><g fill="#f00"><use xlink:href="#d" x="257.75" y="170.597"/><use xlink:href="#c" x="265.092" y="170.597"/></g><path d="M96.828 115.703l-18.656-5.746" stroke-width="1.2" stroke="#000" stroke-miterlimit="10" fill="none"/></g></svg>
